svg/Filled/duplicate_filled.svg

<svg viewBox="0 0 24 24" xmlns="http://www.w3.org/2000/svg" width="24" height="24"><path fill-rule="evenodd" d="M12.13 3.05c1.3.02 2.09.1 2.73.43a4 4 0 0 1 1.75 1.74c.24.48.34 1.04.39 1.82h-.04a4.4 4.4 0 0 1 1.86.4 4 4 0 0 1 1.75 1.74c.44.86.44 1.98.44 4.22v1.2c0 2.24 0 3.36-.44 4.22a4 4 0 0 1-1.75 1.74c-.85.44-1.97.44-4.21.44h-1.2c-2.24 0-3.36 0-4.22-.44a4 4 0 0 1-1.75-1.74A5 5 0 0 1 7.05 17a5 5 0 0 1-1.66-.32l-.16-.08a4 4 0 0 1-1.6-1.47l-.15-.27c-.33-.65-.41-1.44-.43-2.74V9.44c0-2.1 0-3.22.35-4.05l.08-.17a4 4 0 0 1 1.47-1.59l.28-.15c.64-.33 1.43-.41 2.73-.43l1.48-.01zM14 10.26c-.5 0-.9.4-.9.9v1.94h-1.94a.9.9 0 0 0 0 1.8h1.94v2.03a.9.9 0 0 0 1.8 0V14.9h2.03a.9.9 0 0 0 0-1.8H14.9v-1.94c0-.5-.4-.9-.9-.9M9.44 4.84c-1.15 0-1.9 0-2.48.05-.55.04-.79.12-.92.19a2.2 2.2 0 0 0-.96.96c-.07.13-.14.36-.19.92-.05.58-.05 1.33-.05 2.48v1.2c0 1.15 0 1.9.05 2.48.05.56.12.79.2.92q.32.63.95.96l.12.05c.15.05.38.1.8.14h.05v.17-1.96c0-2.24 0-3.36.43-4.22A4 4 0 0 1 9.2 7.44C10.05 7 11.17 7 13.41 7h2.01-.22v-.04a3 3 0 0 0-.15-.8L15 6.04a2.2 2.2 0 0 0-.96-.96 3 3 0 0 0-.92-.2c-.57-.04-1.33-.04-2.48-.04z" clip-rule="evenodd"/></svg>

<svg viewBox="0 0 24 24" xmlns="http://www.w3.org/2000/svg" width="24" height="24"><path fill-rule="evenodd" d="M12.13 3.05c1.3.02 2.09.1 2.73.43a4 4 0 0 1 1.75 1.74c.24.48.34 1.04.39 1.82h-.04a4.4 4.4 0 0 1 1.86.4 4 4 0 0 1 1.75 1.74c.44.86.44 1.98.44 4.22v1.2c0 2.24 0 3.36-.44 4.22a4 4 0 0 1-1.75 1.74c-.85.44-1.97.44-4.21.44h-1.2c-2.24 0-3.36 0-4.22-.44a4 4 0 0 1-1.75-1.74A5 5 0 0 1 7.05 17a5 5 0 0 1-1.66-.32l-.16-.08a4 4 0 0 1-1.6-1.47l-.15-.27c-.33-.65-.41-1.44-.43-2.74V9.44c0-2.1 0-3.22.35-4.05l.08-.17a4 4 0 0 1 1.47-1.59l.28-.15c.64-.33 1.43-.41 2.73-.43l1.48-.01zM14 10.26c-.5 0-.9.4-.9.9v1.94h-1.94a.9.9 0 0 0 0 1.8h1.94v2.03a.9.9 0 0 0 1.8 0V14.9h2.03a.9.9 0 0 0 0-1.8H14.9v-1.94c0-.5-.4-.9-.9-.9M9.44 4.84C8.29 4.84 7.54 4.84 6.96 4.89C6.41 4.93 6.17 5.01 6.04 5.08A2.2 2.2 0 0 0 5.08 6.04C5.01 6.17 4.94 6.4 4.89 6.96C4.84 7.54 4.84 8.29 4.84 9.44L4.84 10.64C4.84 11.79 4.84 12.54 4.89 13.12C4.94 13.68 5.01 13.91 5.09 14.04Q5.41 14.67 6.04 15L6.16 15.05C6.31 15.1 6.54 15.15 6.96 15.19L7.01 15.36L7.01 13.4C7.01 11.16 7.01 10.04 7.44 9.18A4 4 0 0 1 9.2 7.44C10.05 7 11.17 7 13.41 7L15.2 6.96A3 3 0 0 0 15.05 6.16L15 6.04A2.2 2.2 0 0 0 14.04 5.08A3 3 0 0 0 13.12 4.88C12.55 4.84 11.79 4.84 10.64 4.84Z" clip-rule="evenodd"/></svg>
